src/status/symbolic/bluetooth-paired-symbolic.svg

<?xml version="1.0" encoding="UTF-8"?>
<svg width="16" height="16" version="1.1" xmlns="http://www.w3.org/2000/svg">
 <path d="m7.4805 1.002a0.50005 0.50005 0 0 0-0.18555 0.042969 0.50005 0.50005 0 0 0-0.29492 0.45508v5.2852l-2.7344-1.709a0.5 0.5 0 0 0-0.68945 0.1582 0.5 0.5 0 0 0 0.1582 0.68945l3.2656 2.041v0.070312l-3.2656 2.041a0.5 0.5 0 0 0-0.1582 0.68945 0.5 0.5 0 0 0 0.68945 0.1582l2.7344-1.709v5.2852a0.50005 0.50005 0 0 0 0.83203 0.37305l1.168-1.0391v-0.83398c0-0.21977 0.042063-0.42278 0.11719-0.60742l-1.1172 0.99414v-4.7969l2.7383 1.7109c0.18696-0.29042 0.41455-0.54722 0.67969-0.75391l-2.4746-1.5469 3.3223-2.0762a0.50005 0.50005 0 0 0 0.066406-0.79688l-4.5-4a0.50005 0.50005 0 0 0-0.35156-0.125zm0.51953 1.6113 3.1699 2.8164-3.1699 1.9805v-4.7969z" fill="#363636"/>
 <path d="m13 10c-1.108 0-2 0.892-2 2-0.554 0-1 0.446-1 1v2c0 0.554 0.446 1 1 1h4c0.554 0 1-0.446 1-1v-2c0-0.554-0.446-1-1-1 0-1.108-0.892-2-2-2zm0 1c0.554 0 1 0.446 1 1h-2c0-0.554 0.446-1 1-1z" fill="#363636"/>
</svg>

<svg xmlns="http://www.w3.org/2000/svg" width="16" height="16">
    <path fill="#050505" fill-opacity=".7" d="M7.48 1.002a.5.5 0 0 0-.185.043A.5.5 0 0 0 7 1.5v5.285L4.266 5.076a.5.5 0 0 0-.69.158.5.5 0 0 0 .158.69L7 7.964v.071l-3.266 2.041a.5.5 0 0 0-.158.69.5.5 0 0 0 .69.158L7 9.214V14.5a.5.5 0 0 0 .832.373L9 13.834V13c0-.22.042-.423.117-.607L8 13.387V8.59l2.738 1.71a3.03 3.03 0 0 1 .68-.753L8.943 8l3.323-2.076a.5.5 0 0 0 .066-.797l-4.5-4a.5.5 0 0 0-.351-.125zM8 2.613l3.17 2.817L8 7.41V2.613zM13 10c-1.108 0-2 .892-2 2-.554 0-1 .446-1 1v2c0 .554.446 1 1 1h4c.554 0 1-.446 1-1v-2c0-.554-.446-1-1-1 0-1.108-.892-2-2-2zm0 1c.554 0 1 .446 1 1h-2c0-.554.446-1 1-1z"/>
</svg>
